X: 14
T:Frank's Reel
M:4/4
L:1/8
C:John McCusker
R:Reel
K:A
"A"AcBA "D"F2 AF|"A"EFAB "A7"cABc|"D"d3 f "A"eAce|"F#m"(3fga ec "E7"(3Bc
d cB|
"A"AcBA "D"F2 AF|!"A"EFAB "A7"cABc|
"D"d3 f "A"ecAc|1 "E7"BAGB "A" A3:| |2 "E7" BAGB "A"Aefg||
"A"aAAg AAfA|!"A"effe "A7"cABc|"D"d3f "A"eAcA|"B7"Bcde "E7"fefg|
"A"aAAg AAfA|"A"effe "A7"cABc|!"D"d3f "A"ecAc|"E7" BAGB "A"Aefg|
"A"aAAg AAfA|"A"effe "A7"cABc|"D"d3f "A"eAce|!"F#m"(3fga ec "E7"(3Bcd cB
|
"A"AcBA "D"F2 AF|"A"EFAB "A7"cABc|"D"d3 f "A"ecAc| "E7"BAGB "A" A3||
